resources/svg/solid/joystick-button.svg

<svg xmlns="http://www.w3.org/2000/svg" fill="currentColor" stroke="none" viewBox="0 0 24 24"><path d="M20,8h-4V4c0-1.104-0.896-2-2-2h-4C8.896,2,8,2.896,8,4v4H4c-1.104,0-2,0.896-2,2v4c0,1.104,0.896,2,2,2h4v4 c0,1.104,0.896,2,2,2h4c1.104,0,2-0.896,2-2v-4h4c1.104,0,2-0.896,2-2v-4C22,8.896,21.104,8,20,8z M7,14l-3-2l3-2V14z M12,20l-2-3 h4L12,20z M12,14c-1.104,0-2-0.896-2-2s0.896-2,2-2s2,0.896,2,2S13.104,14,12,14z M10,7l2-3l2,3H10z M17,14v-4l3,2L17,14z"/></svg>

<svg xmlns="http://www.w3.org/2000/svg" fill="currentColor" stroke="none" viewBox="0 0 24 24"><path d="M20 8h-4V4a2 2 0 0 0-2-2h-4a2 2 0 0 0-2 2v4H4a2 2 0 0 0-2 2v4a2 2 0 0 0 2 2h4v4a2 2 0 0 0 2 2h4a2 2 0 0 0 2-2v-4h4a2 2 0 0 0 2-2v-4a2 2 0 0 0-2-2zM7 14l-3-2 3-2v4zm5 6-2-3h4l-2 3zm0-6a2 2 0 1 1 .001-4.001A2 2 0 0 1 12 14zm-2-7 2-3 2 3h-4zm7 7v-4l3 2-3 2z"/></svg>
